X: 33
T: The Voice of her I Love
R: reel
M: 2/4
L: 1/16
N: Some note lengths are wrong in bar 5, but it's not obvious how to fix it.
Z: 2010 John Chambers <jc:trillian.mit.edu>
B: Anonymous manuscript tune book (1800-1840) p.24
F: http://www.asaplive.com/archive/browse_by_collection.asp
N: The asaplive.com web site is complex, and links to its files don't usually work.
K: C
G2 | c2e>d c2e2 | g3fd2 zf | egfe dcBA | d4 {ed}c4 :||: Bc | d3/e/d/ cBAG | e3dc ze |
f3f edef | He4 {dfe}Hd2 g2{ag}x{gefd}x | c2ed ceag | g3fd2 zf | dgfd dccA | d4 {ed}c2 :|


%%sep 5 1 500

